X: 70
M:6/8
L:1/8
K:G
d/2c/2|:BAG GDG|GBd gdc|BAG GFG|A2 G Adc|
|:d3 BGB|def gdB|ded BGB|A2 G ABc|
1d2 d BGB|def gdB|cec BdB|A2 G ABc:|
2dBd def|gba gdB|cec BdB|A2 G Gdc||

